mockup/templates/main/build/images/small/present.svg

<svg xmlns="http://www.w3.org/2000/svg" width="24" height="24" viewBox="0 0 24 24">
  <g fill="none" fill-rule="evenodd">
    <rect width="24" height="24" fill="#394791" rx="2"/>
    <path fill="#FFF" d="M6.27563333,14.5431 L11.3623,14.5431 L11.3623,18.9997667 L6.99118889,18.9997667 C6.59918889,18.9997667 6.27952222,18.6839889 6.27563333,18.2919889 L6.27563333,14.5431 Z M12.6376222,19.0000778 L12.6376222,14.5434111 L17.7250667,14.5434111 L17.7250667,18.2923 C17.7204,18.6843 17.4015111,19.0000778 17.0095111,19.0000778 L12.6376222,19.0000778 Z M14.8619889,8.18111111 C14.9195444,8.18655556 14.9771,8.18655556 15.0346556,8.18111111 C15.5604333,8.13366667 15.9485444,7.66855556 15.9011,7.142 C15.8536556,6.61622222 15.3885444,6.22811111 14.8619889,6.27555556 C13.7738778,6.27555556 13.1594333,7.40333333 12.8553222,8.18111111 L14.8619889,8.18111111 Z M9.13754444,8.18111111 L11.1442111,8.18111111 C10.8408778,7.39555556 10.2272111,6.27555556 9.13754444,6.27555556 C9.07998889,6.27011111 9.02321111,6.27011111 8.96565556,6.27555556 C8.4391,6.323 8.05098889,6.78811111 8.09921111,7.31466667 C8.14665556,7.84122222 8.61176667,8.22855556 9.13754444,8.18111111 Z M18.2997667,8.18111111 C18.6886556,8.18111111 18.9997667,8.64 18.9997667,9.2 L18.9997667,12.2566667 C18.9997667,12.8166667 18.6886556,13.2755556 18.2997667,13.2755556 L12.6375444,13.2755556 L12.6375444,8.18111111 L11.3619889,8.18111111 L11.3619889,13.2755556 L5.69976667,13.2755556 C5.31087778,13.2755556 4.99976667,12.8166667 4.99976667,12.2566667 L4.99976667,9.2 C4.99976667,8.64 5.31087778,8.18111111 5.69976667,8.18111111 L7.13165556,8.18111111 C6.98465556,7.88322222 6.90687778,7.55655556 6.9061,7.22444444 C6.90998889,5.99477778 7.90787778,5 9.13754444,5 C10.3967667,5.05988889 11.5105444,5.83688889 11.9997667,6.99888889 C12.4897667,5.83688889 13.6027667,5.05988889 14.8619889,5 C16.0916556,5 17.0903222,5.99477778 17.0942111,7.22444444 C17.0926556,7.55655556 17.0156556,7.88322222 16.8686556,8.18111111 L18.2997667,8.18111111 Z"/>
  </g>
</svg>

<svg xmlns="http://www.w3.org/2000/svg" width="24" height="24"><g fill="none" fill-rule="evenodd"><rect width="24" height="24" fill="#394791" rx="2"/><path fill="#FFF" d="M6.276 14.543h5.086V19h-4.37a.716.716 0 0 1-.716-.708v-3.749zM12.638 19v-4.457h5.087v3.75a.716.716 0 0 1-.715.707h-4.372zm2.224-10.819a.957.957 0 1 0 0-1.906c-1.088 0-1.703 1.128-2.007 1.906h2.007zm-5.724 0h2.006c-.303-.785-.917-1.905-2.006-1.905a.956.956 0 1 0 0 1.906zm9.162 0c.389 0 .7.459.7 1.019v3.057c0 .56-.311 1.019-.7 1.019h-5.662V8.18h-1.276v5.095H5.7c-.39 0-.7-.46-.7-1.02V9.2c0-.56.31-1.019.7-1.019h1.432a2.173 2.173 0 0 1-.226-.957A2.231 2.231 0 0 1 9.138 5 3.274 3.274 0 0 1 12 6.999 3.275 3.275 0 0 1 14.862 5c1.23 0 2.228.995 2.232 2.224a2.183 2.183 0 0 1-.225.957h1.43z"/></g></svg>
